src/assets/icons/pin-cnfs.svg

<svg width="20" height="32" viewBox="0 0 20 32" fill="none" xmlns="http://www.w3.org/2000/svg">
<path d="M9.53078 0L0 5.48419V16.4792L9.02496 32H10.0366L19.0349 16.4792V5.48419L9.53078 0Z" fill="#E1000F"/>
<path d="M12.2462 9.39768H15.8403V7.32114L9.53077 3.67389L3.19466 7.32114V14.6157L9.53077 18.2895L15.8403 14.6157V12.5391H12.2462V9.39768Z" fill="white"/>
<path d="M12.2463 12.5391V9.39768L9.53079 7.82697L6.78869 9.39768V12.5391L9.53079 14.1098L12.2463 12.5391Z" fill="#000091"/>
</svg>

<svg width="20" height="32" fill="none" xmlns="http://www.w3.org/2000/svg"><path d="M9.53 0 0 5.484V16.48L9.025 32h1.012l8.998-15.52V5.483L9.53 0z" fill="#E1000F"/><path d="M12.246 9.398h3.594V7.32L9.53 3.674 3.196 7.32v7.295L9.53 18.29l6.31-3.674v-2.077h-3.595V9.398z" fill="#fff"/><path d="M12.246 12.54V9.397L9.531 7.827l-2.742 1.57v3.142l2.742 1.57 2.715-1.57z" fill="#000091"/></svg>
